X: 665
T: Laicheng bainian
L: 1/8
M: 2/4
K: A
E2e2 [I:setbarnb 1]| 
c B A F | 
c B A F | 
E CE2 | 
E2e2 | 
c B A F | 
c B A F | 
E CE2 | 
A B/ c< A B/ | 
F CE2 | 
A> c B c | 
F EC2 | 
e> c e3/ c/ | 
B2B c | 
A B/ c/ f e | 
c B A F | 
E G F E | 
E c B c | 
E4 |]

@@@ Tune index: 9539
